X:1
T:Title
%%score ( 1 2 ) { 3 | 4 }
L:1/8
Q:1/4=103
M:4/4
K:Bb
V:1 treble nm="Grand Piano, Soprano"
V:2 treble 
V:3 bass nm="Choir Pad, Bass"
V:4 bass 
V:1
 [B,D][CE] [DF]2 [DF]2 [DB]2 | [DF][DF] [EG]2 [EG]2 [DF]2 | [DF]2 [DB]2 [DB]2 [Fd]2 | %3
w: By~James~H.~May * * * *|||
 [FB][FB] [=Ec]2 [Ed]2 [Fc]2 | [B,D][CE] [DF]2 [DF]2 [DB]2 | z4 z2 B2- | B2 z2 z4 | z2 B6 | %8
w: |||||
 z2 [EB]2- [EB][Ec] [EB]<[EB] | z2 F6 | z2 [Fd]2- [Fd][Ff] [Fd]<[Fd] | %11
w: |||
 [FB]2 c-<[Fc-] [=Ec-]2 [Fc]2 | [B,D][CE] [DF]2 [DF]2 [DB]2 | [DF][DF] [EG]2 [EG]2 B2- | %14
w: |||
 [GB]2 [Fd]2- [Fd][Ff] [Fd]<[DB] | [Ec]2 B-<[DB-] [EB-]2 [DB]2- | [DB]6 z2 |] %17
w: |||
V:2
 x8 | x8 | x8 | x8 | x8 | [DF][DF] [EG]2 [EG]2 E2 | G2 [Fd]2- [Fd][Ff] [Fd]<[Fd] | %7
 [Ec]2 D<D E2 D2 | x8 | [EG]2 D<D C2 D2 | x8 | z2 .F2 z4 | x8 | z4 z2 E2 | x8 | z2 .D2 z4 | x8 |] %17
V:3
 F,2 B,2 B,2 F,2 | B,B, B,2 B,2 B,2 | B,2 F,2 F,2 B,2 | B,B, G,2 B,2 A,2 | F,2 B,2 B,2 F,2 | %5
 B,B, B,2 B,2 G,2 | B,2 B,2- B,D B,<B, | F,2 F,<F, G,2 F,2 | z2 G,2- G,G, G,<G, | %9
 B,2 B,<B, A,2 B,2 | z2 B,2- B,D B,<B, | B,2 A,<A, G,2 A,2 | F,2 B,2 B,2 F,2 | B,B, B,2 B,2 G,2 | %14
 B,2 B,2- B,D B,<B, | F,2 F,<F, G,2 F,2- | F,6 z2 |] %17
V:4
 B,,2 B,,2 B,,2 B,,2 | B,,B,, E,2 E,2 B,,2 | B,,2 B,,2 B,,2 B,,2 | D,D, C,2 C,2 F,2 | %4
 B,,2 B,,2 B,,2 B,,2 | B,,B,, E,2 E,2 E,2- | E,2 F,2- F,F, F,<F, | z2 B,,6 | z2 E,2- E,E, E,<E, | %9
 E,2 B,,6 | z2 B,,2- B,,B,, B,,<B,, | D,2 F,<F, C,2 F,2 | B,,2 B,,2 B,,2 B,,2 | %13
 B,,B,, E,2 E,2 E,2- | E,2 F,2- F,F, F,<F, | z2 B,,6- | B,,6 z2 |] %17

